X:68
%
T:The Maid Behind the Bar
C:Traditional
L:1/8
M:C
Q:1/4=80
K:D treble
%
|: "D" FA AB AF ED | FA AB AB de | "G" fB BA Bc de | "Em" f2 gf ed Bd |
"D" A2 AB AF ED | "Bm" FA AB AB de | "E" fB BA "G" Bc dB | "A" AF EF D4 :|
|: "Bm" f2 ag fd de | fd ad fd de | "Em" ef ga be ef | "G" ge be ge eg |
"D" f2 af bf af | de fd "G" e2 de | fd BA Bc dB | "A" AF GF D4 :|

